X: 57
T: Debka Druz
C: Uri Givon 1958
O: Israel 
D: Debka Israeli Folk Dances (Tikva Records T-100)
I: choreographer V. Cohen 1969
F: http://www.youtube.com/watch?v=VdkgQp3LQu8
L:1/8
M:2/4
Q:1/4=132
K:Am
  "Dm" D2 "Am" E2| E2 "Dm" D2    |"Am" E2 ED |"Dm" F4    |\
  DE "Am" ED     | E2 "Dm" FE    | DE "Am" C2|"Dm"D2 z2  |
  "Dm" D2 "Am" E2| E2 "Dm" D2    |"Am" E2 ED |"Dm" F4    |\
  D E2 D         |"Am" E2 "Dm" DE| FG "Am" E2|"Dm" F4    |
|:"Dm" A2 "C" G2 |G2 "Dm" FE     | FG "Am" E2|"Dm" F2  z2|\
  DE "Am" ED     | E2 "Dm" FE    | DE "Am" C2|"Dm" D2 z2 :|



